X:1
T:Title
%%score ( 1 2 ) { 3 | 4 }
L:1/8
Q:1/4=110
M:4/4
K:Eb
V:1 treble nm="Grand Piano, Soprano"
V:2 treble 
V:3 treble nm="Grand Piano, Bass"
V:4 bass 
V:1
 z4 z2 [GB]2 | [Ge]2 [GB]>[GB] [GB]>[FA] [EG]>[DF] | E2 [EG]2 [GB]2 [GB]>[Ge] | %3
w: 1.~Oh,~|look~ at~ the~ faith ful ness~ of~|Christ,~ our~ Lord,~ How~ He~|
 [Ad]3 [Ac] [FB]2 [DF]2 | [EG]6 [GB]2 | [Ge]2 [GB]>[GB] [GB]>[FA] [EG]>[DF] | %6
w: saves~ and~ keeps~ the~|soul;~ Who~|trusts~ in~ His~ maj es ty~ and~|
 E>[EF] [EG]>[FA] [GB]2 [EA]>[EG] | [DF]2 [Dc]>[Dc] [EB]2 [B,D]2 | [B,E]6 [GB]2 | e6 z2 | %10
w: stand eth~ on~ His~ word,~ Shall~ be~|safe~ while~ the~ bil lows~|roll.~ *||
 [GB]6 [FA]>[EG] | [DF]3- [DF]/[EG]/ [FA]2 [GB]>[FA] | [EG]6 [GB]2 | [Ge]6 [Ge]>[Bd] | %14
w: ||||
 [Ac]6 E->[EG] | [DF]2 [Dc]>[Dc] [EB]2 [B,D]2 | [B,E]6 z2 |] %17
w: |||
V:2
 x8 | x8 | x8 | x8 | x8 | x8 | x8 | x8 | x8 | G4- G>E [Bd]>[Ac] | x8 | x8 | x8 | x8 | z4 z2 A2 | %15
 x8 | x8 |] %17
V:3
 z4 z2 B,2 | B,2 E>E E>[K:bass]B, B,>A, | G,2 B,2 E2 E>B, | B,3 B, B,2 B,2 | B,6 B,2 | %5
 B,2[K:treble] E>E E>B, B,>[K:bass]A, | G,>A, B,>B, E2 C>B, | B,2 A,>A, G,2 A,2 | G,6 B,2 | %9
 B,2 B,>B, B,>B,[K:treble] C>D | E2 E2 E2[K:bass] B,2 | B,2 B,>B, B,>B, B,>B, | B,2 B,2 B,2 B,2 | %13
 B,2 B,>B, B,>B, B,>[K:treble]E | E2 E2 E2 C>[K:bass]B, | B,2 A,>A, G,2 A,2 | G,6 z2 |] %17
V:4
 z4 z2 E,2 | E,2 E,>E, E,>E, E,>B,, | E,2 E,2 E,2 E,>E, | B,,3 B,, B,,2 B,,2 | E,6 E,2 | %5
 E,2 E,>E, E,>E, E,>B,, | E,>E, E,>E, E,2 A,,>A,, | B,,2 B,,>B,, B,,2 B,,2 | E,6 E,2 | %9
 E,2 E,>E, E,>E, E,>E, | E,2 E,2 E,2 D,>E, | B,,2 B,,>B,, B,,>B,, B,,>B,, | E,2 E,2 E,2 E,2 | %13
 E,2 E,>E, E,>E, E,>G, | A,2 A,2 A,2 A,,2 | B,,2 B,,>B,, B,,2 B,,2 | E,6 z2 |] %17

